src/cards/spades_7.svg

<svg version="1.1" id="Layer_1" xmlns="http://www.w3.org/2000/svg" xmlns:xlink="http://www.w3.org/1999/xlink" x="0px" y="0px"
	 width="100%" viewBox="0 0 336 496" enable-background="new 0 0 336 496" xml:space="preserve">
<path fill="currentColor" opacity="1.000000" stroke="none" 
	d="
M166.078827,189.239685 
	C166.604248,187.478485 166.994980,186.047089 167.564941,183.959152 
	C164.238678,184.534851 161.725571,186.227982 158.830627,186.664871 
	C146.352844,188.547943 135.673615,177.627930 138.011505,165.234619 
	C139.378326,157.989059 143.307541,152.412643 148.944519,147.886520 
	C156.423508,141.881393 165.054977,137.230988 170.935455,128.341843 
	C177.162903,137.638306 186.596802,142.315552 194.339127,149.003906 
	C199.410263,153.384705 202.890350,158.697052 204.019272,165.429810 
	C206.374573,179.476669 193.142929,190.562637 179.664261,185.784378 
	C178.132858,185.241486 176.650574,184.560120 174.772888,183.790176 
	C175.081909,188.794403 177.332733,192.558548 179.840607,196.267868 
	C182.420456,200.083603 181.650223,201.773514 177.154007,201.950989 
	C172.831894,202.121597 168.490692,202.072510 164.168106,201.884613 
	C160.620010,201.730423 159.778946,199.817261 161.738220,196.915146 
	C163.326660,194.562332 164.936569,192.244965 166.078827,189.239685 
z"/>
<path fill="currentColor" opacity="1.000000" stroke="none" 
	d="
M127.152115,231.883591 
	C132.056198,236.921310 134.383743,242.684723 134.178207,249.310776 
	C133.799866,261.506042 122.344711,269.649475 110.714973,266.091705 
	C108.828644,265.514648 107.025375,264.666077 104.804115,263.793976 
	C104.976532,268.568359 107.062828,272.252014 109.501831,275.774994 
	C110.459381,277.158081 111.777084,278.474487 111.031776,280.258087 
	C110.136124,282.401428 107.971764,281.937317 106.229881,281.984283 
	C102.567085,282.083008 98.895004,282.101898 95.234535,281.956757 
	C90.335648,281.762573 89.446724,280.106842 92.278526,276.193390 
	C94.863960,272.620483 96.406006,268.719421 97.513229,263.844238 
	C92.995117,265.562866 89.024437,267.278229 84.654358,266.916534 
	C70.789284,265.768890 63.589706,251.170273 70.388588,237.983505 
	C72.168259,234.531738 74.713562,231.692871 77.606888,229.126526 
	C85.272812,222.326965 94.850082,217.777847 101.030190,208.172318 
	C107.680779,218.977386 119.135780,223.169540 127.152115,231.883591 
z"/>
<path fill="currentColor" opacity="1.000000" stroke="none" 
	d="
M261.655640,266.078735 
	C255.542358,267.980927 250.218826,266.391571 244.607941,263.472809 
	C245.170471,268.688141 247.097305,272.465820 249.643097,275.966095 
	C250.654037,277.356049 251.815857,278.778259 250.956345,280.479309 
	C250.069992,282.233459 248.094131,281.926270 246.476791,281.958771 
	C242.814819,282.032379 239.149597,282.014496 235.487000,281.954193 
	C233.863266,281.927490 231.908676,282.258972 231.019089,280.482056 
	C230.152863,278.751709 231.346039,277.320984 232.381851,275.979401 
	C235.048752,272.525299 236.617416,268.637238 237.491470,263.715271 
	C232.898972,265.655029 228.901550,267.306061 224.479935,266.887848 
	C210.813049,265.595215 203.743729,251.387131 210.246872,238.267166 
	C212.755798,233.205490 216.813034,229.513428 221.190903,226.136826 
	C228.012497,220.875443 235.634644,216.543030 240.903595,208.261337 
	C248.042862,219.148132 259.905518,223.807602 268.043457,232.828445 
	C278.329285,244.230209 275.542755,259.963257 261.655640,266.078735 
z"/>
<path fill="currentColor" opacity="1.000000" stroke="none" 
	d="
M90.831467,388.509827 
	C90.882957,387.235687 91.051422,386.215485 91.967323,386.095001 
	C97.764206,385.332581 103.627785,385.303253 109.382401,386.036346 
	C112.256088,386.402496 111.418106,388.882935 110.186981,390.682648 
	C107.647812,394.394501 105.359741,398.200531 104.706856,403.371429 
	C108.114708,402.804840 110.779839,400.875397 113.906548,400.692017 
	C121.320351,400.257172 127.388695,402.605927 131.359497,409.110107 
	C135.827515,416.428741 134.890060,423.777435 130.825806,430.881927 
	C128.567993,434.828674 125.170563,437.838867 121.654091,440.677521 
	C114.595924,446.375183 106.223038,450.547333 101.101761,459.371094 
	C95.557335,450.639038 87.210022,446.189178 79.983620,440.431824 
	C74.801651,436.303223 70.546593,431.534454 68.664436,424.988007 
	C66.496147,417.446320 67.814377,410.669006 73.675125,405.344086 
	C79.538918,400.016449 86.423027,399.354034 93.706871,402.259705 
	C94.615517,402.622192 95.518829,402.998016 96.714989,403.486145 
	C97.534241,397.247040 93.073021,393.536957 90.831467,388.509827 
z"/>
<path fill="currentColor" opacity="1.000000" stroke="none" 
	d="
M255.996796,400.689941 
	C270.151642,401.753723 277.651001,413.793365 272.768463,426.886261 
	C270.777069,432.226318 267.007263,436.190582 262.781555,439.774323 
	C255.487869,445.959900 246.501007,450.168549 241.043228,459.420013 
	C235.362976,450.320770 226.604980,445.822968 219.184113,439.772675 
	C213.437943,435.087769 209.237320,429.470062 207.941086,422.038422 
	C205.572281,408.457428 218.214752,397.411224 231.427017,401.479065 
	C233.156754,402.011597 234.837265,402.704071 236.970734,403.478607 
	C237.040924,398.815155 235.049469,395.327789 232.651642,391.982086 
	C231.591843,390.503387 230.102600,389.022003 231.071899,387.053284 
	C232.108093,384.948700 234.297241,385.782593 236.008774,385.729706 
	C239.837036,385.611420 243.676697,385.585785 247.502625,385.743134 
	C251.518387,385.908295 252.336044,387.398651 250.093475,390.729828 
	C247.572769,394.474213 245.398453,398.278809 244.723572,403.263550 
	C248.678925,402.659882 251.808319,400.200104 255.996796,400.689941 
z"/>
<path fill="currentColor" opacity="1.000000" stroke="none" 
	d="
M95.130829,102.115700 
	C85.355629,106.033279 77.046249,104.374680 71.814171,97.657585 
	C66.311668,90.593292 66.576073,80.238831 72.492180,72.147209 
	C75.071243,68.619751 78.346504,65.796951 81.800369,63.174042 
	C88.514297,58.075397 95.918045,53.774323 100.941444,45.711357 
	C106.824158,54.865524 115.953690,59.368855 123.456032,65.792702 
	C129.880524,71.293655 134.498688,77.837280 134.194000,86.771355 
	C133.778671,98.949615 122.462517,107.021797 110.759605,103.564201 
	C108.894287,103.013100 107.072334,102.315239 104.842049,101.552414 
	C105.132423,106.440750 107.163033,110.144524 109.707207,113.628014 
	C110.715439,115.008492 111.795372,116.395164 110.876656,118.147072 
	C110.008362,119.802834 108.253593,119.273392 106.838272,119.303413 
	C103.013458,119.384529 99.184326,119.400513 95.360191,119.307587 
	C93.798820,119.269646 91.840202,119.834602 90.999504,117.821617 
	C90.245750,116.016808 91.430359,114.652931 92.410629,113.304222 
	C94.687798,110.171211 96.279037,106.702614 97.251869,102.973946 
	C97.860283,100.642014 96.545563,101.381622 95.130829,102.115700 
z"/>
<path fill="currentColor" opacity="1.000000" stroke="none" 
	d="
M271.272827,75.026337 
	C277.405151,88.436981 272.652374,100.757812 260.437836,103.886803 
	C256.598297,104.870361 252.880051,104.357887 245.042938,101.688080 
	C244.783508,106.171021 246.996277,109.564598 249.190414,112.957329 
	C250.164062,114.462868 251.889938,115.835274 250.992142,117.836472 
	C249.913940,120.239845 247.507629,119.222549 245.659561,119.295799 
	C242.001266,119.440796 238.328308,119.427483 234.669159,119.283150 
	C230.505569,119.118912 229.611649,117.456635 232.017166,113.957520 
	C234.599518,110.201172 236.626099,106.286034 237.550613,101.244705 
	C234.338669,102.206528 231.657379,103.876381 228.581741,104.247253 
	C213.826111,106.026520 203.817902,92.096451 209.493790,77.676147 
	C212.048737,71.184982 217.031540,66.824921 222.372345,62.756836 
	C228.835114,57.834167 236.043869,53.758049 240.848129,45.620087 
	C248.771606,58.201591 263.783173,62.256603 271.272827,75.026337 
z"/>
<path fill="currentColor" opacity="1.000000" stroke="none" 
	d="
M31.660957,72.403053 
	C34.436481,75.829910 37.898655,77.899765 41.123810,80.249954 
	C43.729336,82.148628 46.075809,84.347633 47.063408,87.468895 
	C49.334164,94.645508 46.116959,103.015274 34.118900,100.894585 
	C33.149723,103.574905 36.860619,105.067314 35.899490,107.673790 
	C32.034279,109.415306 30.173008,109.433144 26.137901,107.750351 
	C25.253080,105.181885 28.410522,103.758263 28.008425,101.301064 
	C27.761574,101.155167 27.486086,100.846397 27.249281,100.873650 
	C20.662008,101.631950 16.933434,100.099091 14.976398,95.788734 
	C12.958720,91.344803 14.164555,86.082924 18.557774,82.285736 
	C22.659891,78.740166 27.080351,75.562904 31.660957,72.403053 
z"/>
<path fill="currentColor" opacity="1.000000" stroke="none" 
	d="
M307.577515,401.728363 
	C306.739838,400.137573 305.670105,398.978363 306.088135,397.066406 
	C309.084717,395.259521 312.774048,395.044098 315.328400,396.935913 
	C317.948822,398.876648 313.570251,401.087219 314.045197,403.685699 
	C314.335358,404.396027 314.981781,404.192200 315.631226,404.051086 
	C320.381165,403.019135 324.368195,404.286621 326.717377,408.623871 
	C329.123749,413.066650 328.043457,417.346497 324.871979,421.096039 
	C320.982208,425.694763 315.133789,428.031219 311.353973,433.420197 
	C307.574158,429.221558 303.089325,426.668213 299.279572,423.270050 
	C294.711060,419.195038 292.916107,413.903625 294.901550,409.511383 
	C297.129089,404.583557 301.175751,402.935303 306.419556,404.071136 
	C308.617462,404.547241 308.022400,403.190369 307.577515,401.728363 
z"/>
<path fill="currentColor" opacity="1.000000" stroke="none" 
	d="
M21.822094,31.067451 
	C18.416372,32.889805 16.783312,31.938650 16.706516,28.422184 
	C16.695604,27.922541 16.691763,27.422749 16.681740,26.923082 
	C16.480579,16.893894 16.681824,16.686781 26.739058,16.682831 
	C31.570528,16.680933 36.404099,16.600956 41.232899,16.716238 
	C46.248421,16.835978 48.190144,20.264711 45.449303,24.275566 
	C39.335583,33.222179 35.037991,42.838802 34.115704,53.751320 
	C33.739231,58.205772 30.831814,58.620045 27.373426,58.144005 
	C23.429100,57.601074 24.044989,54.972012 24.520639,52.127880 
	C25.926680,43.720570 29.591858,36.335808 34.353653,29.410910 
	C35.547287,27.675053 36.856422,26.018618 38.227402,24.170786 
	C28.056524,21.803452 25.760447,22.789356 21.822094,31.067451 
z"/>
<path fill="currentColor" opacity="1.000000" stroke="none" 
	d="
M307.299683,476.166382 
	C306.295990,478.025726 304.411865,478.946503 304.269714,481.529297 
	C307.623199,481.529297 310.903442,481.733551 314.145447,481.468842 
	C317.076721,481.229462 318.118286,478.839478 318.886261,476.328186 
	C319.516388,474.267914 320.682220,472.626831 323.170593,473.057312 
	C325.777954,473.508392 325.214294,475.728058 325.289124,477.453186 
	C325.747711,488.029236 325.443817,488.331940 314.934967,488.328888 
	C310.103821,488.327515 305.269653,488.421844 300.442383,488.281921 
	C295.817841,488.148010 293.907654,484.711273 296.429871,480.911682 
	C302.500916,471.766022 307.037598,462.074036 307.899048,450.956238 
	C308.230194,446.682343 311.158478,446.541504 314.372253,446.850739 
	C317.858704,447.186157 318.035156,449.288483 317.581787,452.205078 
	C316.218353,460.975983 312.423615,468.653290 307.299683,476.166382 
z"/>
</svg>

<svg xmlns="http://www.w3.org/2000/svg" viewBox="0 0 336 496" xml:space="preserve"><path fill="currentColor" d="M166.079 189.24c.525-1.762.916-3.193 1.486-5.28-3.326.575-5.84 2.268-8.734 2.705-12.478 1.883-23.157-9.037-20.82-21.43 1.367-7.246 5.297-12.822 10.934-17.348 7.479-6.006 16.11-10.656 21.99-19.545 6.228 9.296 15.662 13.974 23.404 20.662 5.071 4.38 8.551 9.693 9.68 16.426 2.356 14.047-10.876 25.133-24.355 20.354-1.531-.543-3.013-1.224-4.891-1.994.309 5.004 2.56 8.769 5.068 12.478 2.58 3.816 1.81 5.506-2.687 5.683-4.322.17-8.663.122-12.986-.066-3.548-.155-4.39-2.068-2.43-4.97 1.589-2.353 3.199-4.67 4.34-7.675zM127.152 231.884c4.904 5.037 7.232 10.8 7.026 17.427-.378 12.195-11.833 20.338-23.463 16.78-1.886-.576-3.69-1.425-5.91-2.297.172 4.774 2.258 8.458 4.697 11.981.957 1.383 2.275 2.7 1.53 4.483-.896 2.143-3.06 1.68-4.802 1.726-3.663.099-7.335.118-10.995-.027-4.9-.194-5.788-1.85-2.956-5.764 2.585-3.573 4.127-7.474 5.234-12.349-4.518 1.719-8.489 3.434-12.859 3.073-13.865-1.148-21.064-15.747-14.265-28.933 1.78-3.452 4.325-6.291 7.218-8.857 7.666-6.8 17.243-11.35 23.423-20.955 6.65 10.805 18.106 14.998 26.122 23.712zM261.656 266.079c-6.114 1.902-11.437.313-17.048-2.606.562 5.215 2.49 8.993 5.035 12.493 1.011 1.39 2.173 2.812 1.313 4.513-.886 1.754-2.862 1.447-4.48 1.48-3.661.073-7.326.055-10.989-.005-1.624-.027-3.578.305-4.468-1.472-.866-1.73.327-3.161 1.363-4.503 2.667-3.454 4.235-7.342 5.11-12.264-4.593 1.94-8.59 3.591-13.012 3.173-13.667-1.293-20.736-15.5-14.233-28.62 2.509-5.063 6.566-8.755 10.944-12.131 6.821-5.262 14.444-9.594 19.713-17.876 7.139 10.887 19.002 15.547 27.14 24.567 10.285 11.402 7.499 27.135-6.388 33.25zM90.831 388.51c.052-1.274.22-2.295 1.136-2.415a67.887 67.887 0 0 1 17.415-.059c2.874.366 2.036 2.847.805 4.647-2.54 3.712-4.827 7.518-5.48 12.688 3.408-.566 6.073-2.496 9.2-2.679 7.413-.435 13.482 1.914 17.452 8.418 4.469 7.319 3.531 14.667-.533 21.772-2.258 3.947-5.655 6.957-9.172 9.796-7.058 5.697-15.431 9.87-20.552 18.693-5.545-8.732-13.892-13.182-21.118-18.94-5.182-4.128-9.437-8.897-11.32-15.443-2.168-7.542-.85-14.319 5.011-19.644 5.864-5.328 12.748-5.99 20.032-3.084.909.362 1.812.738 3.008 1.226.82-6.239-3.642-9.949-5.884-14.976zM255.997 400.69c14.155 1.064 21.654 13.103 16.771 26.196-1.99 5.34-5.76 9.305-9.986 12.888-7.294 6.186-16.281 10.395-21.739 19.646-5.68-9.1-14.438-13.597-21.859-19.647-5.746-4.685-9.947-10.303-11.243-17.735-2.369-13.58 10.274-24.627 23.486-20.559 1.73.533 3.41 1.225 5.544 2 .07-4.664-1.922-8.151-4.32-11.497-1.06-1.479-2.548-2.96-1.58-4.929 1.037-2.104 3.226-1.27 4.938-1.323 3.828-.119 7.668-.144 11.494.013 4.015.165 4.833 1.656 2.59 4.987-2.52 3.744-4.695 7.549-5.37 12.534 3.956-.604 7.085-3.064 11.274-2.574zM95.13 102.116c-9.774 3.917-18.084 2.259-23.316-4.458-5.502-7.065-5.238-17.42.678-25.51 2.58-3.528 5.855-6.351 9.308-8.974 6.714-5.099 14.118-9.4 19.141-17.463 5.883 9.155 15.013 13.658 22.515 20.082 6.425 5.5 11.043 12.044 10.738 20.978-.415 12.179-11.731 20.25-23.434 16.793-1.866-.55-3.688-1.249-5.918-2.012.29 4.889 2.321 8.593 4.865 12.076 1.008 1.38 2.088 2.767 1.17 4.52-.869 1.655-2.623 1.125-4.039 1.155a252.36 252.36 0 0 1-11.478.005c-1.561-.038-3.52.527-4.36-1.486-.754-1.805.43-3.17 1.41-4.518 2.278-3.133 3.869-6.601 4.842-10.33.608-2.332-.706-1.592-2.121-.858zM271.273 75.026c6.132 13.411 1.38 25.732-10.835 28.86-3.84.984-7.558.472-15.395-2.198-.26 4.483 1.953 7.877 4.147 11.27.974 1.505 2.7 2.877 1.802 4.878-1.078 2.404-3.484 1.387-5.332 1.46-3.659.145-7.332.131-10.99-.013-4.164-.164-5.058-1.826-2.653-5.325 2.583-3.757 4.61-7.672 5.534-12.713-3.212.962-5.894 2.631-8.97 3.002-14.755 1.78-24.763-12.15-19.087-26.57 2.555-6.492 7.538-10.852 12.878-14.92 6.463-4.923 13.672-8.999 18.476-17.137 7.924 12.582 22.935 16.637 30.425 29.406zM31.661 72.403c2.775 3.427 6.238 5.497 9.463 7.847 2.605 1.899 4.952 4.098 5.94 7.219 2.27 7.177-.947 15.546-12.945 13.426-.97 2.68 2.742 4.172 1.78 6.779-3.865 1.741-5.726 1.76-9.761.076-.885-2.568 2.273-3.992 1.87-6.449-.246-.146-.522-.455-.759-.427-6.587.758-10.316-.775-12.273-5.085-2.017-4.444-.811-9.706 3.582-13.503 4.102-3.546 8.522-6.723 13.103-9.883zM307.578 401.728c-.838-1.59-1.908-2.75-1.49-4.662 2.997-1.806 6.686-2.022 9.24-.13 2.62 1.94-1.758 4.151-1.283 6.75.29.71.937.506 1.586.365 4.75-1.032 8.737.236 11.086 4.573 2.407 4.443 1.326 8.722-1.845 12.472-3.89 4.599-9.738 6.935-13.518 12.324-3.78-4.198-8.265-6.752-12.074-10.15-4.569-4.075-6.364-9.366-4.378-13.759 2.227-4.927 6.274-6.576 11.518-5.44 2.197.476 1.602-.88 1.158-2.343zM21.822 31.067c-3.406 1.823-5.039.872-5.115-2.645-.011-.5-.015-1-.025-1.499-.201-10.03 0-10.236 10.057-10.24 4.832-.002 9.665-.082 14.494.033 5.015.12 6.957 3.549 4.216 7.56-6.113 8.946-10.411 18.563-11.333 29.475-.377 4.455-3.284 4.869-6.743 4.393-3.944-.543-3.328-3.172-2.852-6.016 1.406-8.407 5.07-15.792 9.833-22.717 1.193-1.736 2.502-3.392 3.873-5.24-10.17-2.368-12.467-1.382-16.405 6.896zM307.3 476.166c-1.004 1.86-2.888 2.78-3.03 5.363 3.353 0 6.633.205 9.875-.06 2.932-.24 3.973-2.63 4.741-5.14.63-2.061 1.796-3.702 4.285-3.272 2.607.451 2.043 2.671 2.118 4.396.459 10.576.155 10.879-10.354 10.876-4.831-.001-9.665.093-14.493-.047-4.624-.134-6.534-3.57-4.012-7.37 6.07-9.146 10.608-18.838 11.469-29.956.331-4.274 3.26-4.414 6.473-4.105 3.487.335 3.663 2.437 3.21 5.354-1.364 8.771-5.158 16.448-10.282 23.961z"/></svg>
